X:387
T:My Lord Byron's Delight. (p)1698.PLFD.387
M:4/4
L:1/8
Q:1/2=80
S:Playford, Dancing Master,9th Ed,extra pages(9C),1698.
O:England
H:1698
Z:Chris Partington
K:F
a | affc | f2ba | g2fec3a | afge fagb | a2gff3 :|
|: g | gefga2gf | gefd^c3a | bgaf gefd | d3^cd2 z b |
baag ge z a | affd dB z g | geec cABc | A2GFF3 :|
